X:1
T:Dania, 11.11.11.11.11.11
T:Dania, 11.11.11.11.11.11
T:Francis Grenville Ilsley, 1887
T:Public Domain Courtesy of the Cyber Hymnal™
C:Francis Grenville Ilsley, 1887
Z:Public Domain
Z:Courtesy of the Cyber Hymnal™
%%score ( 1 2 ) ( 3 4 )
L:1/8
Q:1/4=115
M:4/4
K:Ab
V:1 treble 
V:2 treble 
V:3 bass 
V:4 bass 
V:1
 [CE]2 [CE]2 [CE]2 E2 | [DF]4 [DE]4 | E2 [EA]2 [Dd]2 [Ec]2 | ([Ec]4 [EB]4) | %4
 [EA]2 [_Ge]2 [Fd]2 [Ec]2 | [=Dc]4 [DB]4 | [EB]2 [EA]2 [=DF]2 [DF]2 | E8 | %8
 [Dc]2 [DB]2 [DA]2 [DG]2 | ([=DF]4 E4) | [Dc]2 [DB]2 [DA]2 [DG]2 | [=DF]4 E4 | %12
 [C=E]2 [CE]2 [CF]2 [CG]2 | [FA]4 [Fc]4 | [=EG]2 [Gc]2 [Fc]2 [F=B]2 | [=Ec]8 | %16
 [Ac]2 [Ac]2 [Ac]2 [Ad]2 | (c2 B=A) [GB]4 | [FA]2 [FA]2 [Fc]2 [Fc]2 | [Ff]8 | %20
 [Fe]2 [Fd]2 [Fc]2 [FB]2 | [Ae]4 [=DA]4 | E2 [Ec]2 [DB]3 [CA] | [CA]8 |] %24
V:2
 x6 E2 | x8 | E2 x6 | x8 | x8 | x8 | x8 | E8 | x8 | x4 E4 | x8 | x4 E4 | x8 | x8 | x8 | x8 | x8 | %17
 G4 x4 | x8 | x8 | x8 | x8 | E2 x6 | x8 |] %24
V:3
 [A,,E,]2 [A,,F,]2 [A,,G,]2 [C,A,]2 | [B,,A,]4 [B,,G,]4 | [C,A,]2 [C,A,]2 [F,A,]2 [D,A,]2 | %3
 [D,G,]8 | [C,A,]2 [C,A,]2 [D,A,]2 [E,A,]2 | [F,A,]4 [B,,A,]4 | G,2 [A,C]2 B,2 [B,,A,]2 | [E,G,]8 | %8
 [E,G,]2 [E,G,]2 [E,B,]2 [E,B,]2 | ([A,=B,]4 [A,,C]4) | [E,G,]2 [E,G,]2 [E,B,]2 [E,B,]2 | %11
 [A,=B,]4 [A,,C]4 | [C,B,]2 [C,B,]2 [=D,A,]2 [=E,G,]2 | [F,C]4 [A,=D]4 | %14
 [G,C]2 [G,=E]2 [G,=D]2 [G,,D]2 | [C,C]8 | [A,E]2 [E,D]2 [C,E]2 [A,,E]2 | [E,D]4 [E,D]4 | %18
 [F,C]2 [F,C]2 [E,=A,]2 [E,A,]2 | [D,B,]8 | [B,,C]2 [B,,B,]2 [D,E]2 [D,D]2 | [E,C]4 [F,B,]4 | %22
 [E,C]2 [E,F,]2 [E,G,]3 [A,,A,] | [A,,A,]8 |] %24
V:4
 x8 | x8 | x8 | x8 | x8 | x8 | G,2 B,2 x4 | x8 | x8 | x8 | x8 | x8 | x8 | x8 | x8 | x8 | x8 | x8 | %18
 x8 | x8 | x8 | x8 | x8 | x8 |] %24

